X: 7
T: The Humours Of Kinvara
R: reel
M: 4/4
L: 1/8
K: Edor
dc|:BE ~E2 BEdE|BE ~E2 BcdB|cA ~A2 cAeA|1(3Bcd efe2dc:|2(3Bcd efe2de||
|:~f3e dcBA|effe d2de|~f3e fgaf|1ecAc ~e2de:|2ecAc e2dc|B4||


Tune 294	Setting 13048

